assets/tangent-lines.svg

<svg version="1.1" xmlns="http://www.w3.org/2000/svg" xmlns:xlink="http://www.w3.org/1999/xlink" width="320" height="320"><defs/><g transform="scale(2,2)"><g id="background-9e3d9f6f"><rect fill="white" stroke="none" x="0" y="0" width="160" height="160" class="dcg-svg-background"/></g><g id="background-images-9e3d9f6f"/><g id="graphpaper-9e3d9f6f"><g id="axis-9e3d9f6f"><g id="yaxis-9e3d9f6f"><title>Y axis</title><g><path fill="none" stroke="rgb(0,0,0)" class="dcg-svg-axis-line" paint-order="fill stroke markers" d=" M 57 0 L 57 160" stroke-opacity="0.9" stroke-miterlimit="10" stroke-width="1.5" stroke-dasharray=""/></g></g><g id="xaxis-9e3d9f6f"><title>X axis</title><g><path fill="none" stroke="rgb(0,0,0)" class="dcg-svg-axis-line" paint-order="fill stroke markers" d=" M 0 91 L 160 91" stroke-opacity="0.9" stroke-miterlimit="10" stroke-width="1.5" stroke-dasharray=""/></g></g><g><g><path fill="none" stroke="rgb(0,0,0)" class="dcg-svg-tickmark" paint-order="fill stroke markers" d="" stroke-opacity="0.9" stroke-miterlimit="2" stroke-width="1.5" stroke-dasharray=""/></g></g></g></g><g id="expressions-9e3d9f6f"><g id="sketch-9e3d9f6f"><title>Expression 1</title><path fill="#c74440" stroke="none" paint-order="stroke fill markers" d="" fill-opacity="0.4"/><g><path fill="none" stroke="#c74440" class="dcg-svg-curve" paint-order="fill stroke markers" d=" M 20.682281203001352 165.5 L 20.682281203001352 165.5 L 21.679687499999996 159.49831283390267 L 22.890624999999993 152.69566862720254 L 24.062499999999993 146.55756202654058 L 25.234374999999996 140.8420186940106 L 26.36718749999999 135.70449755524658 L 27.499999999999996 130.93414342022822 L 28.59375 126.66390989196967 L 29.687499999999993 122.711015436969 L 30.781249999999996 119.06320752442224 L 31.835937499999993 115.8231498399646 L 32.89062499999999 112.8443968786294 L 33.94531249999999 110.11596255423706 L 34.96093749999999 107.71490999086302 L 35.9765625 105.5259798816798 L 36.9921875 103.53936216466983 L 38.0078125 101.74524677781545 L 39.0234375 100.13382365909911 L 40.0390625 98.69528274650314 L 41.0546875 97.41981397800997 L 42.10937499999999 96.25737308421742 L 43.203125 95.21470527927265 L 44.33593749999999 94.29665671870994 L 45.50781249999999 93.5059400760296 L 46.67968749999999 92.8620042912115 L 47.85156249999999 92.34977928719171 L 49.06249999999999 91.9428417450924 L 50.35156249999999 91.62784402421478 L 51.71875 91.40502888273261 L 53.28124999999999 91.26050337828616 L 55.23437499999999 91.19270039855589 L 61.17187499999999 91.06538282031983 L 62.69531249999999 90.88483445521236 L 64.06249999999999 90.6169345162029 L 65.31249999999999 90.26321758727572 L 66.484375 89.820453794026 L 67.6171875 89.27571479581948 L 68.75 88.60245112876022 L 69.8828125 87.78705004805147 L 71.015625 86.81589880889649 L 72.109375 85.71768056721564 L 73.16406249999999 84.49769188748967 L 74.17968749999999 83.16311230677847 L 75.19531249999999 81.66183586234736 L 76.17187499999999 80.0519650403852 L 77.14843749999999 78.27018253417975 L 78.12499999999999 76.30776723431902 L 79.14062499999999 74.06586535071854 L 80.15625 71.6093482235429 L 81.17187499999999 68.92840579077449 L 82.18749999999999 66.01322799039565 L 83.24218749999997 62.72748936729171 L 84.29687499999999 59.167585489074966 L 85.35156249999999 55.32253026956589 L 86.44531249999999 51.022129719859024 L 87.5390625 46.39099688195718 L 88.67187499999999 41.23273492605142 L 89.80468749999999 35.6929390100707 L 90.93749999999999 29.757996389218334 L 92.10937499999999 23.188090720287306 L 93.28124999999999 16.165679177976642 L 94.49218749999999 8.417796827948678 L 95.70312499999999 0.15401939210221371 L 96.4807069168337 -5.5" stroke-linecap="round" stroke-linejoin="round" stroke-miterlimit="10" stroke-width="2.5" stroke-opacity="0.9" stroke-dasharray=""/></g></g><g id="sketch-9e3d9f6f"><title>Expression 2</title><path fill="none" stroke="#000000" class="dcg-svg-point" paint-order="fill stroke markers" d=" M 107.44730082102558 65.77242359291303 L 107.44730082102558 65.97242359291302 L 107.64730082102557 65.97242359291302 L 107.64730082102557 65.77242359291303" stroke-linecap="round" stroke-linejoin="round" stroke-miterlimit="10" stroke-width="7.5" stroke-opacity="0.9" stroke-dasharray=""/></g><g id="sketch-9e3d9f6f"><title>Expression 3</title><path fill="#6042a6" stroke="none" paint-order="stroke fill markers" d="" fill-opacity="0.4"/><g><path fill="none" stroke="#6042a6" class="dcg-svg-curve" paint-order="fill stroke markers" d=" M 103.76885603295491 164 L 103.76885603295491 164 L 110.2377687243523 -4" stroke-linecap="round" stroke-linejoin="round" stroke-miterlimit="10" stroke-opacity="0.9" stroke-dasharray=""/></g></g><g id="sketch-9e3d9f6f"><title>Expression 4</title><path fill="#388c46" stroke="none" paint-order="stroke fill markers" d="" fill-opacity="0.4"/><g><path fill="none" stroke="#388c46" class="dcg-svg-curve" paint-order="fill stroke markers" d=" M 0 113.53892783308902 L 0 113.53892783308902 L 160 42.62463598005591" stroke-linecap="round" stroke-linejoin="round" stroke-miterlimit="10" stroke-opacity="0.9" stroke-dasharray=""/></g></g><g id="sketch-9e3d9f6f"><title>Expression 5</title><path fill="#2d70b3" stroke="none" paint-order="stroke fill markers" d="" fill-opacity="0.4"/><g><path fill="none" stroke="#2d70b3" class="dcg-svg-curve" paint-order="fill stroke markers" d=" M 0 128.94077926208098 L 0 128.94077926208098 L 160 35.11288372186965" stroke-linecap="round" stroke-linejoin="round" stroke-miterlimit="10" stroke-opacity="0.9" stroke-dasharray=""/></g></g></g><g id="labels-9e3d9f6f"/></g></svg>

<?xml version="1.0" encoding="utf-8"?>
<svg version="1.1" viewBox="0 0 320 320" xmlns="http://www.w3.org/2000/svg">
  <g transform="scale(2)">
    <rect class="dcg-svg-background" width="160" height="160" fill-opacity="0" stroke="transparent"/>
    <g>
      <title>Y axis</title>
      <path class="dcg-svg-axis-line" d="m57 0v160" fill="none" fill-opacity="0" stroke="#000" stroke-dasharray="" stroke-miterlimit="10" stroke-opacity=".9" stroke-width="1.5" paint-order="fill stroke markers"/>
    </g>
    <g>
      <title>X axis</title>
      <path class="dcg-svg-axis-line" d="m0 91h160" fill="none" fill-opacity="0" stroke="#000" stroke-dasharray="" stroke-miterlimit="10" stroke-opacity=".9" stroke-width="1.5" paint-order="fill stroke markers"/>
    </g>
    <g id="sketch" style="">
      <title>Expression 1</title>
      <path class="dcg-svg-curve" d="m20.682 165.5v0l0.99741-6.0017 1.2109-6.8026 1.1719-6.1381 1.1719-5.7155 1.1328-5.1375 1.1328-4.7704 1.0938-4.2702 1.0937-3.9529 1.0938-3.6478 1.0547-3.2401 1.0547-2.9788 1.0547-2.7284 1.0156-2.4011 1.0156-2.1889 1.0156-1.9866 1.0156-1.7941 1.0156-1.6114 1.0156-1.4385 1.0156-1.2755 1.0547-1.1624 1.0938-1.0427 1.1328-0.91805 1.1719-0.79072 1.1719-0.64394 1.1719-0.51223 1.2109-0.40694 1.2891-0.315 1.3672-0.22282 1.5625-0.14453 1.9531-0.067803 5.9375-0.12732 1.5234-0.18055 1.3672-0.2679 1.25-0.35372 1.1719-0.44276 1.1328-0.54474 1.1328-0.67326 1.1328-0.8154 1.1328-0.97115 1.0938-1.0982 1.0547-1.22 1.0156-1.3346 1.0156-1.5013 0.97656-1.6099 0.97656-1.7818 0.97656-1.9624 1.0156-2.2419 1.0156-2.4565 1.0156-2.6809 1.0156-2.9152 1.0547-3.2857 1.0547-3.5599 1.0547-3.8451 1.0938-4.3004 1.0938-4.6311 1.1328-5.1583 1.1328-5.5398 1.1328-5.9349 1.1719-6.5699 1.1719-7.0224 1.2109-7.7479 1.2109-8.2638 0.77758-5.654" fill="none" fill-opacity="0" stroke="#c74440" stroke-dasharray="" stroke-linecap="round" stroke-linejoin="round" stroke-miterlimit="10" stroke-opacity=".9" stroke-width="2.5" paint-order="fill stroke markers"/>
    </g>
    <g id="sketch" style="">
      <title>Expression 3</title>
      <path class="dcg-svg-curve" d="m103.77 164v0l6.4689-168" fill="none" fill-opacity="0" stroke="#6042a6" stroke-dasharray="" stroke-linecap="round" stroke-linejoin="round" stroke-miterlimit="10" stroke-opacity=".9" paint-order="fill stroke markers"/>
    </g>
    <g id="a" style="">
      <title>Expression 4</title>
      <path class="dcg-svg-curve" d="m0 113.54v0l160-70.914" fill="none" fill-opacity="0" stroke="#388c46" stroke-dasharray="" stroke-linecap="round" stroke-linejoin="round" stroke-miterlimit="10" stroke-opacity=".9" paint-order="fill stroke markers"/>
    </g>
    <g style="">
      <title>Expression 5</title>
      <path class="dcg-svg-curve" d="m0 128.94v0l160-93.828" fill="none" fill-opacity="0" stroke="#2d70b3" stroke-dasharray="" stroke-linecap="round" stroke-linejoin="round" stroke-miterlimit="10" stroke-opacity=".9" paint-order="fill stroke markers"/>
    </g>
    <circle cx="107.45" cy="65.772" r="3" rx="2.5"/>
  </g>
</svg>
